Origami/24x24/apps/mcomix.svg

<svg width="24" height="24" version="1.1" viewBox="0 0 24 24" xmlns="http://www.w3.org/2000/svg">
 <path d="m12 4.5a8 8 0 0 1 0.613971 0.0257354 8 8 0 0 0 -0.613971 -0.0257354za8 8 0 0 0 -7.0340073 4.2049633 8 8 0 0 1 7.0340073 -4.2049633zm0.998162 0.07261a8 8 0 0 1 0.419118 0.056985 8 8 0 0 0 -0.419118 -0.056985zm0.742647 0.129596a8 8 0 0 1 0.462317 0.1102941 8 8 0 0 0 -0.462317 -0.1102942zm0.743567 0.204044a8 8 0 0 1 0.477022 0.1663604 8 8 0 0 0 -0.477022 -0.1663604zm0.708639 0.2693015a8 8 0 0 1 0.508272 0.2362132 8 8 0 0 0 -0.508272 -0.2362132zm0.657169 0.3216911a8 8 0 0 1 0.540441 0.3198529 8 8 0 0 0 -0.540441 -0.3198529zm0.67647 0.4172793a8 8 0 0 1 0.513787 0.3786767 8 8 0 0 0 -0.513787 -0.3786767zm0.605699 0.4595591a8 8 0 0 1 0.504596 0.4549632 8 8 0 0 0 -0.504596 -0.4549632zm0.576286 0.5321689a8 8 0 0 1 0.46967 0.5183826 8 8 0 0 0 -0.46967 -0.5183826zm-9.708639 0.4172795a4 4 0 0 0 -3.0542279 1.4163605 8 8 0 0 0 -9.177e-4 9.412e-4 8 8 0 0 0 -0.9448544 3.7591689 8 8 0 0 0 8 8 8 8 0 0 0 8 -8 8 8 0 0 0 -0.931986 -3.7371322 4 4 0 0 0 -9.41e-4 -0.00184 4 4 0 0 0 -3.067073 -1.4374984 4 4 0 0 0 -4 3.9999996 4 4 0 0 0 0.01195 0.235295h-0.02023a4 4 0 0 0 0.00828 -0.235295 4 4 0 0 0 -4 -3.9999996zm11.067096 1.4375003a8 8 0 0 0 -0.400736 -0.6755516 8 8 0 0 1 0.400736 0.6755516zm-0.847427-1.2821695a8 8 0 0 1 0.439338 0.5946692 8 8 0 0 0 -0.439338 -0.5946692z" style="opacity:.2"/>
 <path d="m5 6.5a5 5 0 0 0 -5 5 5 5 0 0 0 5 5 5 5 0 0 0 5 -5 5 5 0 0 0 -5 -5z" style="opacity:.2"/>
 <path d="m19 6.5a5 5 0 0 0 -5 5 5 5 0 0 0 5 5 5 5 0 0 0 5 -5 5 5 0 0 0 -5 -5z" style="opacity:.2"/>
 <path d="m19 6a5 5 0 0 0 -5 5 5 5 0 0 0 5 5 5 5 0 0 0 5 -5 5 5 0 0 0 -5 -5z" style="fill:#f8bb88"/>
 <path d="m 19,6 a 5,5 0 0 0 -5,5 5,5 0 0 0 0.01074,0.207031 A 5,5 0 0 1 19,6.5 5,5 0 0 1 23.989258,11.292969 5,5 0 0 0 24,11 5,5 0 0 0 19,6 Z" style="fill:#ffffff;opacity:.2"/>
 <path d="m19 8.5a3.0000001 3.0000001 0 0 0 -3 3 3.0000001 3.0000001 0 0 0 3 3 3.0000001 3.0000001 0 0 0 3 -3 3.0000001 3.0000001 0 0 0 -3 -3z" style="opacity:.1"/>
 <path d="m19 8a3.0000001 3.0000001 0 0 0 -3 3 3.0000001 3.0000001 0 0 0 3 3 3.0000001 3.0000001 0 0 0 3 -3 3.0000001 3.0000001 0 0 0 -3 -3z" style="fill:#986135"/>
 <path d="m5 6a5 5 0 0 0 -5 5 5 5 0 0 0 5 5 5 5 0 0 0 5 -5 5 5 0 0 0 -5 -5z" style="fill:#f8bb88"/>
 <path d="M 5,6 A 5,5 0 0 0 0,11 5,5 0 0 0 0.01074219,11.207031 5,5 0 0 1 5,6.5 5,5 0 0 1 9.989258,11.292969 5,5 0 0 0 10,11 5,5 0 0 0 5,6 Z" style="fill:#ffffff;opacity:.2"/>
 <path d="M 4.9999994,8.5 A 3.0000001,3.0000001 0 0 0 2,11.5 3.0000001,3.0000001 0 0 0 4.9999994,14.5 3.0000001,3.0000001 0 0 0 8,11.5 3.0000001,3.0000001 0 0 0 4.9999994,8.5 Z" style="opacity:.1"/>
 <path d="M 4.9999994,8 A 3.0000001,3.0000001 0 0 0 2,11 3.0000001,3.0000001 0 0 0 4.9999994,14 3.0000001,3.0000001 0 0 0 8,11 3.0000001,3.0000001 0 0 0 4.9999994,8 Z" style="fill:#986135"/>
 <path d="m12 4a8 8 0 0 1 0.613971 0.0257354 8 8 0 0 0 -0.613971 -0.0257354za8 8 0 0 0 -7.0340073 4.2049633 8 8 0 0 1 7.0340073 -4.2049633zm0.998162 0.07261a8 8 0 0 1 0.419118 0.056985 8 8 0 0 0 -0.419118 -0.056985zm0.742647 0.129596a8 8 0 0 1 0.462317 0.1102941 8 8 0 0 0 -0.462317 -0.1102942zm0.743567 0.204044a8 8 0 0 1 0.477022 0.1663604 8 8 0 0 0 -0.477022 -0.1663604zm0.708639 0.2693015a8 8 0 0 1 0.508272 0.2362132 8 8 0 0 0 -0.508272 -0.2362132zm0.657169 0.3216911a8 8 0 0 1 0.540441 0.3198529 8 8 0 0 0 -0.540441 -0.3198529zm0.67647 0.4172793a8 8 0 0 1 0.513787 0.3786767 8 8 0 0 0 -0.513787 -0.3786767zm0.605699 0.4595591a8 8 0 0 1 0.504596 0.4549632 8 8 0 0 0 -0.504596 -0.4549632zm0.576286 0.5321689a8 8 0 0 1 0.46967 0.5183826 8 8 0 0 0 -0.46967 -0.5183826zm-9.708639 0.4172795a4 4 0 0 0 -3.0542279 1.4163605 8 8 0 0 0 -9.177e-4 9.412e-4 8 8 0 0 0 -0.9448544 3.7591689 8 8 0 0 0 8 8 8 8 0 0 0 8 -8 8 8 0 0 0 -0.931986 -3.7371322 4 4 0 0 0 -9.41e-4 -0.0018353 4 4 0 0 0 -3.067073 -1.4375031 4 4 0 0 0 -4 3.9999996 4 4 0 0 0 0.01195 0.235295h-0.02023a4 4 0 0 0 0.00828 -0.235295 4 4 0 0 0 -4 -3.9999996zm11.067096 1.4375003a8 8 0 0 0 -0.400736 -0.6755516 8 8 0 0 1 0.400736 0.6755516zm-0.847427-1.2821695a8 8 0 0 1 0.439338 0.5946692 8 8 0 0 0 -0.439338 -0.5946692z" style="fill:#f59d56"/>
 <path d="M 12,4.500176 A 8,8 0 0 0 4.9448529,8.7409849 4,4 0 0 1 8,7.3237054 4,4 0 0 1 12,11.323705 4,4 0 0 1 16,7.3237054 4,4 0 0 1 19.068014,8.7630438 8,8 0 0 0 12,4.500176 Z m 0,6.823529 A 4,4 0 0 1 11.9917,11.559 l 0.02023,0 A 4,4 0 0 1 12,11.323705 Z" style="opacity:.1"/>
 <path d="M 12,4 A 8,8 0 0 0 4.9448529,8.2408089 4,4 0 0 1 8,6.8235294 4,4 0 0 1 12,10.823529 4,4 0 0 1 16,6.8235294 4,4 0 0 1 19.068014,8.2628678 8,8 0 0 0 12,4 Z m 0,6.823529 a 4,4 0 0 1 -0.0083,0.235295 l 0.02023,0 A 4,4 0 0 1 12,10.823529 Z" style="fill:#986135"/>
 <circle cx="8.5" cy="13" r="1.5" style="opacity:.1"/>
 <circle cx="8.5" cy="12.5" r="1.5" style="fill:#3f3f3f"/>
 <circle cx="15.5" cy="13" r="1.5" style="opacity:.1"/>
 <circle cx="15.5" cy="12.5" r="1.5" style="fill:#3f3f3f"/>
 <path d="m8.5 17s1.5 1 3.5 1 3.5-1 3.5-1" style="fill:none;opacity:.1;stroke-linecap:round;stroke-linejoin:round;stroke:#000000"/>
 <path d="m8.5 16.5s1.5 1 3.5 1 3.5-1 3.5-1" style="fill:none;stroke-linecap:round;stroke-linejoin:round;stroke:#3f3f3f"/>
 <path d="m12 4a8 8 0 0 0 -7.0546875 4.2402344 4 4 0 0 1 0.7070313 -0.6503906 8 8 0 0 1 6.3476562 -3.1484376 8 8 0 0 1 6.347656 3.1523438 4 4 0 0 1 0.720703 0.6699219 8 8 0 0 0 -7.068359 -4.2636719zm0.011719 7.042969a4 4 0 0 0 -0.001953 0.015625h0.001953a4 4 0 0 1 0 -0.015625z" style="fill:#ffffff;opacity:.1"/>
</svg>

<svg xmlns="http://www.w3.org/2000/svg" width="24" height="24" version="1.1" viewBox="0 0 24 24">
 <path style="opacity:0.2" d="M 12,4.5 A 8,8 0 0 1 12.613971,4.5257354 8,8 0 0 0 12,4.5 Z m 0,0 A 8,8 0 0 0 4.9659927,8.7049633 8,8 0 0 1 12,4.5 Z m 0.998162,0.07261 A 8,8 0 0 1 13.41728,4.629595 8,8 0 0 0 12.998162,4.57261 Z m 0.742647,0.129596 A 8,8 0 0 1 14.203126,4.8125001 8,8 0 0 0 13.740809,4.7022059 Z M 14.484376,4.90625 A 8,8 0 0 1 14.961398,5.0726104 8,8 0 0 0 14.484376,4.90625 Z m 0.708639,0.2693015 a 8,8 0 0 1 0.508272,0.2362132 8,8 0 0 0 -0.508272,-0.2362132 z m 0.657169,0.3216911 a 8,8 0 0 1 0.540441,0.3198529 8,8 0 0 0 -0.540441,-0.3198529 z m 0.67647,0.4172793 A 8,8 0 0 1 17.040441,6.2931986 8,8 0 0 0 16.526654,5.9145219 Z M 17.132353,6.374081 A 8,8 0 0 1 17.636949,6.8290442 8,8 0 0 0 17.132353,6.374081 Z m 0.576286,0.5321689 a 8,8 0 0 1 0.46967,0.5183826 8,8 0 0 0 -0.46967,-0.5183826 z M 8,7.3235294 A 4,4 0 0 0 4.9457721,8.7398899 8,8 0 0 0 4.9448544,8.7408311 8,8 0 0 0 4,12.5 a 8,8 0 0 0 8,8 8,8 0 0 0 8,-8 8,8 0 0 0 -0.931986,-3.7371322 4,4 0 0 0 -9.41e-4,-0.00184 A 4,4 0 0 0 16,7.3235294 a 4,4 0 0 0 -4,3.9999996 4,4 0 0 0 0.01195,0.235295 l -0.02023,0 A 4,4 0 0 0 12,11.323529 4,4 0 0 0 8,7.3235294 Z M 19.067096,8.7610297 A 8,8 0 0 0 18.66636,8.0854781 8,8 0 0 1 19.067096,8.7610297 Z M 18.219669,7.4788602 a 8,8 0 0 1 0.439338,0.5946692 8,8 0 0 0 -0.439338,-0.5946692 z"/>
 <path style="opacity:0.2" d="m 5,6.5 a 5,5 0 0 0 -5,5 5,5 0 0 0 5,5 5,5 0 0 0 5,-5 5,5 0 0 0 -5,-5 z"/>
 <path style="opacity:0.2" d="m 19,6.5 a 5,5 0 0 0 -5,5 5,5 0 0 0 5,5 5,5 0 0 0 5,-5 5,5 0 0 0 -5,-5 z"/>
 <path style="fill:#f8bb88" d="m 19,6 a 5,5 0 0 0 -5,5 5,5 0 0 0 5,5 5,5 0 0 0 5,-5 5,5 0 0 0 -5,-5 z"/>
 <path style="opacity:0.2;fill:#ffffff" d="m 19,6 a 5,5 0 0 0 -5,5 5,5 0 0 0 0.01074,0.207031 A 5,5 0 0 1 19,6.5 5,5 0 0 1 23.989258,11.292969 5,5 0 0 0 24,11 5,5 0 0 0 19,6 Z"/>
 <path style="opacity:0.1" d="m 19,8.5 a 3.0000001,3.0000001 0 0 0 -3,3 3.0000001,3.0000001 0 0 0 3,3 3.0000001,3.0000001 0 0 0 3,-3 3.0000001,3.0000001 0 0 0 -3,-3 z"/>
 <path style="fill:#986135" d="m 19,8 a 3.0000001,3.0000001 0 0 0 -3,3 3.0000001,3.0000001 0 0 0 3,3 3.0000001,3.0000001 0 0 0 3,-3 3.0000001,3.0000001 0 0 0 -3,-3 z"/>
 <path style="fill:#f8bb88" d="M 5,6 A 5,5 0 0 0 0,11 5,5 0 0 0 5,16 5,5 0 0 0 10,11 5,5 0 0 0 5,6 Z"/>
 <path style="opacity:0.2;fill:#ffffff" d="M 5,6 A 5,5 0 0 0 0,11 5,5 0 0 0 0.01074219,11.207031 5,5 0 0 1 5,6.5 5,5 0 0 1 9.989258,11.292969 5,5 0 0 0 10,11 5,5 0 0 0 5,6 Z"/>
 <path style="opacity:0.1" d="M 4.9999994,8.5 A 3.0000001,3.0000001 0 0 0 2,11.5 3.0000001,3.0000001 0 0 0 4.9999994,14.5 3.0000001,3.0000001 0 0 0 8,11.5 3.0000001,3.0000001 0 0 0 4.9999994,8.5 Z"/>
 <path style="fill:#986135" d="M 4.9999994,8 A 3.0000001,3.0000001 0 0 0 2,11 3.0000001,3.0000001 0 0 0 4.9999994,14 3.0000001,3.0000001 0 0 0 8,11 3.0000001,3.0000001 0 0 0 4.9999994,8 Z"/>
 <path style="fill:#f59d56" d="M 12,4 A 8,8 0 0 1 12.613971,4.0257354 8,8 0 0 0 12,4 Z m 0,0 A 8,8 0 0 0 4.9659927,8.2049633 8,8 0 0 1 12,4 Z m 0.998162,0.07261 a 8,8 0 0 1 0.419118,0.056985 8,8 0 0 0 -0.419118,-0.056985 z m 0.742647,0.129596 A 8,8 0 0 1 14.203126,4.3125001 8,8 0 0 0 13.740809,4.2022059 Z M 14.484376,4.40625 A 8,8 0 0 1 14.961398,4.5726104 8,8 0 0 0 14.484376,4.40625 Z m 0.708639,0.2693015 a 8,8 0 0 1 0.508272,0.2362132 8,8 0 0 0 -0.508272,-0.2362132 z m 0.657169,0.3216911 a 8,8 0 0 1 0.540441,0.3198529 8,8 0 0 0 -0.540441,-0.3198529 z m 0.67647,0.4172793 A 8,8 0 0 1 17.040441,5.7931986 8,8 0 0 0 16.526654,5.4145219 Z M 17.132353,5.874081 A 8,8 0 0 1 17.636949,6.3290442 8,8 0 0 0 17.132353,5.874081 Z m 0.576286,0.5321689 a 8,8 0 0 1 0.46967,0.5183826 8,8 0 0 0 -0.46967,-0.5183826 z M 8,6.8235294 A 4,4 0 0 0 4.9457721,8.2398899 8,8 0 0 0 4.9448544,8.2408311 8,8 0 0 0 4,12 8,8 0 0 0 12,20 8,8 0 0 0 20,12 8,8 0 0 0 19.068014,8.2628678 4,4 0 0 0 19.067073,8.2610325 4,4 0 0 0 16,6.8235294 a 4,4 0 0 0 -4,3.9999996 4,4 0 0 0 0.01195,0.235295 l -0.02023,0 A 4,4 0 0 0 12,10.823529 4,4 0 0 0 8,6.8235294 Z M 19.067096,8.2610297 A 8,8 0 0 0 18.66636,7.5854781 8,8 0 0 1 19.067096,8.2610297 Z M 18.219669,6.9788602 a 8,8 0 0 1 0.439338,0.5946692 8,8 0 0 0 -0.439338,-0.5946692 z"/>
 <path style="opacity:0.1" d="M 12,4.500176 A 8,8 0 0 0 4.9448529,8.7409849 4,4 0 0 1 8,7.3237054 4,4 0 0 1 12,11.323705 4,4 0 0 1 16,7.3237054 4,4 0 0 1 19.068014,8.7630438 8,8 0 0 0 12,4.500176 Z m 0,6.823529 A 4,4 0 0 1 11.9917,11.559 l 0.02023,0 A 4,4 0 0 1 12,11.323705 Z"/>
 <path style="fill:#986135" d="M 12,4 A 8,8 0 0 0 4.9448529,8.2408089 4,4 0 0 1 8,6.8235294 4,4 0 0 1 12,10.823529 4,4 0 0 1 16,6.8235294 4,4 0 0 1 19.068014,8.2628678 8,8 0 0 0 12,4 Z m 0,6.823529 a 4,4 0 0 1 -0.0083,0.235295 l 0.02023,0 A 4,4 0 0 1 12,10.823529 Z"/>
 <circle style="opacity:0.1" cx="8.5" cy="13" r="1.5"/>
 <circle style="fill:#3f3f3f" cx="8.5" cy="12.5" r="1.5"/>
 <circle style="opacity:0.1" cx="15.5" cy="13" r="1.5"/>
 <circle style="fill:#3f3f3f" cx="15.5" cy="12.5" r="1.5"/>
 <path style="opacity:0.1;fill:none;stroke:#000000;stroke-linecap:round;stroke-linejoin:round" d="m 8.5,17 c 0,0 1.5,1 3.5,1 2,0 3.5,-1 3.5,-1"/>
 <path style="fill:none;stroke:#3f3f3f;stroke-linecap:round;stroke-linejoin:round" d="m 8.5,16.5 c 0,0 1.5,1 3.5,1 2,0 3.5,-1 3.5,-1"/>
 <path style="opacity:0.1;fill:#ffffff" d="M 12 4 A 8 8 0 0 0 4.9453125 8.2402344 A 4 4 0 0 1 5.6523438 7.5898438 A 8 8 0 0 1 12 4.4414062 A 8 8 0 0 1 18.347656 7.59375 A 4 4 0 0 1 19.068359 8.2636719 A 8 8 0 0 0 12 4 z M 12.011719 11.042969 A 4 4 0 0 0 12.009766 11.058594 L 12.011719 11.058594 A 4 4 0 0 1 12.011719 11.042969 z"/>
</svg>
